src/main/resources/icons/RustIcons/abstractMethod.svg

<svg width="16" height="16" viewBox="0 0 16 16" fill="none" xmlns="http://www.w3.org/2000/svg">
<rect x="4" y="1" width="8" height="14" fill="#F98B9E" fill-opacity="0.6"/>
<path fill-rule="evenodd" clip-rule="evenodd" d="M3 1.17072C1.83481 1.58255 1 2.69379 1 4.00001V12C1 13.3062 1.83481 14.4175 3 14.8293V1.17072ZM13 1.17072V14.8293C14.1652 14.4175 15 13.3062 15 12V4.00001C15 2.69379 14.1652 1.58255 13 1.17072Z" fill="#9AA7B0" fill-opacity="0.6"/>
<path fill-rule="evenodd" clip-rule="evenodd" d="M11.9922 8.00001C11.9912 7.25101 11.6351 6.00031 9.98163 6.00031C9.11224 6.00031 8.6576 6.50201 8.5986 6.60001C8.28363 6.19412 7.94412 6.00031 7.1 6.00031C6.39791 6.00031 6 6.29924 6 6.29924V6.00031H5V11.0003H6C6 11.0003 5.95 8.23431 6 8.00001C6.05 7.76571 6.05 7.00001 7 7.00001C7.95 7.00001 7.999 7.53701 8 8.00001V11.0003H9V8.00001C9 7.68601 8.95912 7.00001 9.98163 7.00001C11.0041 7.00001 11.0041 7.73962 11.0047 8.00001C11.0047 8.00001 11.0047 9.18563 11.0047 9.77845C11.0047 10.1857 11.0047 11.0003 11.0047 11.0003H11.9972L11.9922 8.00001Z" fill="#231F20" fill-opacity="0.7"/>
</svg>

<svg width="16" height="16" viewBox="0 0 16 16" fill="none" xmlns="http://www.w3.org/2000/svg"><rect id="frame" width="16" height="16" fill="none"/><path fill="#F98B9E" fill-opacity=".6" d="M4 1h8v14H4z"/><path fill-rule="evenodd" clip-rule="evenodd" d="M3 1.17A3.001 3.001 0 0 0 1 4v8c0 1.306.835 2.418 2 2.83V1.17zm10 0v13.66A3.001 3.001 0 0 0 15 12V4a3.001 3.001 0 0 0-2-2.83z" fill="#9AA7B0" fill-opacity=".6"/><path fill-rule="evenodd" clip-rule="evenodd" d="M11.992 8c0-.749-.357-2-2.01-2-.87 0-1.324.502-1.383.6C8.284 6.194 7.944 6 7.1 6c-.702 0-1.1.3-1.1.3V6H5v5h1s-.05-2.766 0-3c.05-.234.05-1 1-1s.999.537 1 1v3h1V8c0-.314-.04-1 .982-1s1.022.74 1.023 1v3h.992l-.005-3z" fill="#231F20" fill-opacity=".7"/></svg>
